Apricity Icons/16/panel/youtube-indicator-downloading-light.svg

<svg xmlns="http://www.w3.org/2000/svg" width="16" height="16" version="1.1">
 <defs>
  <style id="current-color-scheme" type="text/css">
   .ColorScheme-Text { color:#dfdfdf; } .ColorScheme-Highlight { color:#4285f4; }
  </style>
 </defs>
 <path style="fill:currentColor" class="ColorScheme-Text" d="M 8.1074219 2 C 6.2376219 2.0004 3.4791438 2.1237438 2.6523438 2.1523438 C 1.7535435 2.2383437 1.4219406 2.286375 0.93164062 2.734375 C 0.17682062 3.444975 -1.4802974e-16 4.8425687 0 6.9804688 L 0 9.0136719 C 5.33e-08 11.451072 0.30353375 12.690578 0.80859375 13.142578 C 1.3856738 13.671578 1.7664175 13.712391 2.1484375 13.775391 C 2.2973375 13.798391 3.3557625 14 8.0390625 14 C 9.1470799 14 10.065896 13.969777 10.955078 13.941406 L 10.699219 13.599609 L 9.1992188 11.599609 C 8.7053066 10.940114 9.1760567 9.9997625 10 10 L 11 10 L 11 8 L 7 11 L 7 5 L 11 8 L 11 7.8808594 C 11 7.4741235 11.087065 7.093101 11.300781 6.7402344 C 11.514497 6.3873677 11.942765 6 12.533203 6 L 13.466797 6 C 14.057235 6 14.485503 6.3873677 14.699219 6.7402344 C 14.912935 7.093101 15 7.4741235 15 7.8808594 L 15 10 L 15.976562 10 C 15.987478 9.6868277 16 9.3774525 16 9.0253906 L 16 6.6582031 C 16 5.3929031 15.935266 3.6073219 15.197266 2.8574219 C 14.637266 2.3521219 14.433344 2.2110375 13.277344 2.1484375 C 12.951344 2.1330375 10.100122 1.99966 8.1074219 2 z M 12.533203 7 C 12.238203 7 12 7.3918594 12 7.8808594 L 12 11 L 10 11 L 11.5 13 L 13 15 L 14.5 13 L 16 11 L 14 11 L 14 7.8808594 C 14 7.3918594 13.761797 7 13.466797 7 L 12.533203 7 z"/>
</svg>

<svg xmlns="http://www.w3.org/2000/svg" width="16" height="16"><defs><style id="current-color-scheme" type="text/css"></style></defs><path d="M8.107 2c-1.87 0-4.628.124-5.455.152-.898.086-1.23.134-1.72.582C.177 3.445 0 4.843 0 6.98v2.034c0 2.437.304 3.677.809 4.129.577.529.957.57 1.34.632.148.023 1.207.225 5.89.225 1.108 0 2.027-.03 2.916-.059L10.7 13.6l-1.5-2A1 1 0 0 1 10 10h1V8l-4 3V5l4 3v-.12c0-.406.087-.787.3-1.14.214-.353.643-.74 1.233-.74h.934c.59 0 1.019.387 1.232.74.214.353.301.734.301 1.14V10h.977c.01-.313.023-.623.023-.975V6.658c0-1.265-.065-3.05-.803-3.8-.56-.506-.764-.647-1.92-.71C12.951 2.133 10.1 2 8.107 2zm4.426 5c-.295 0-.533.392-.533.88V11h-2l1.5 2 1.5 2 1.5-2 1.5-2h-2V7.88c0-.488-.238-.88-.533-.88h-.934z" fill="currentColor" color="#dfdfdf"/></svg>
